packages/ffe-icons/icons/filled/sm/lock_open_right.svg

<svg xmlns="http://www.w3.org/2000/svg" height="20" viewBox="0 -960 960 960" width="20"><path d="M480.212-298.001q25.942 0 43.864-18.135 17.923-18.135 17.923-44.076 0-25.942-18.135-43.864-18.135-17.923-44.076-17.923-25.942 0-43.864 18.135-17.923 18.135-17.923 44.076 0 25.942 18.135 43.864 18.135 17.923 44.076 17.923Zm-204.187 182q-26.543 0-45.283-18.891-18.741-18.89-18.741-45.417v-359.382q0-26.527 18.891-45.417 18.89-18.891 45.417-18.891h271.692v-96q0-71.602 50.198-121.8Q648.398-871.997 720-871.997q65.846 0 113.961 42.346 48.115 42.346 56.807 105.576 1.615 9.308-5.683 16.692t-18.576 7.384q-11.279 0-18.586-6.346-7.308-6.346-9.769-16.499-7.692-41.693-40.561-69.424-32.87-27.731-77.593-27.731-50 0-85 35t-35 85v96h83.691q26.527 0 45.417 18.891 18.891 18.89 18.891 45.417v359.382q0 26.527-18.903 45.417-18.902 18.891-45.445 18.891H276.025Z"/></svg>

<svg xmlns="http://www.w3.org/2000/svg" height="20" viewBox="0 -960 960 960" width="20"><path d="M480.21-298q25.94 0 43.87-18.14Q542-334.27 542-360.21t-18.14-43.87Q505.73-422 479.79-422t-43.87 18.14Q418-385.73 418-359.79t18.14 43.87Q454.27-298 480.21-298ZM276.03-116q-26.55 0-45.29-18.89T212-180.31v-359.38q0-26.53 18.89-45.42T276.31-604H548v-96q0-71.6 50.2-121.8T720-872q65.85 0 113.96 42.35 48.12 42.34 56.81 105.58 1.61 9.3-5.68 16.69-7.3 7.38-18.58 7.38-11.28 0-18.59-6.34-7.3-6.35-9.77-16.5-7.69-41.7-40.56-69.43Q764.72-820 720-820q-50 0-85 35t-35 85v96h83.69q26.53 0 45.42 18.89T748-539.69v359.38q0 26.53-18.9 45.42Q710.19-116 683.65-116H276.03Z"/></svg>
